X:0808
T:The Bleu Ribbon
P:The Bleu Ribbon
C:From Gow's Repository, Part II, ca. 1800
R:Reel (8x40) AABBA
B:RSCDS 8-8
Z:Anselm Lingnau <anselm@strathspey.org>
M:C|
L:1/8
K:F
|:cB|"F"A2F2F2 GA|"C"c2G2G2 cB|"F"A2 G>F "Dm"F2 ag|"F"f4 c2 fg|
     "F"agfd fdcA|"Gm"d2G2 "C7"G2 cB|"F"BAGF "C7"a2ga|"F"f4 f2!fine!:|
|:c/d/e|"F"fedc "Bb"defg|"F"a2 "C7"g2g2 c/d/e|\
    |"F"fedc "Bb"de"F"fc|"C7"B2 "Dm"A2 f3 g|
     "F"agfd fdcA|"Gm"d2G2 "C7"G2 cB|"F"BAGF "C7"a2ga|"F"f4 f2!D.C.!:|
